X:244120
T:Miss Falconer’s Strathspey
C:John Pringle
B: 
H:
O:Kevin Fraser
Z:Kevin Fraser
Q:1/4=98
K:HP
M:4/4
L:1/8
R:Strathspey
U: R = ///
U: r = //
U: V = !accent!
V:M gstem=up stem=down name="Melody" sname="Melody" 
V:H gstem=up stem=down name="Harmony" sname="Harmony"
V:C gstem=up stem=down name="C-Harmony" sname="C-Harmony"
V:S gstem=up stem=down dyn=up stafflines=1 clef=perc middle=G name="Snare" sname="Snare" sname="Snare"
V:B gstem=up stem=down clef=none dyn=up name="Bass" sname="Bass"
V:T gstem=up stem=down clef=none dyn=up name="Tenor" sname="Tenor"
V:BB gstem=up stem=down name="Brass Bass" sname="ABCD-C" transpose=-1  octave=-1 clef=bass
V:BC gstem=up stem=down name="Brass Chord" sname="ABCD-D" transpose=-1
V:BD gstem=up stem=down name="Brass Chord 2" sname="ABCD-B" transpose=-1
V:P gstem=up stem=down name="Piano" octave=-1
I:MIDI=program 110
%%MIDI gracedivider 4
I:linebreak $
%%score {M H}
%%MIDI program 109 #bagpipes
%%MIDI vol 100
V:M
|:E>FG>A B>B,B,>B,|E>FG>F E>^D E2|c>A G/F/G/A/ B>G E2|AB/c/ (B/^d/).e/.A/ G/F/B/B,/ E2:|
|:g>gB>^d e=d/c/ B2|A>c (B/A/)(G/F/) (G/E/).G/.^d/ e2|g>gB>e e/d/c/B/ AB/c/|(B/G/F/A/) (G/E/)B/^d/ e>E E2:|
V:H
|:G,>F,E,>^D, E,>B,, E,,2|G,>A,B,>B,, E,>B,, E,,2|[^D,2F,2A,2] [E,G,]D, E,>B,,E,>E,,|CB,/A,/ G,E, B,B,, E,2:|
|:z>G,D,>B,, C,D,G,G,,|D,2 G,A, B,B,,E,E,,|z>G,D,>B,, C,^C,D,z|G,,^D,E,B,, E,>B,, E,,2:|

